X: 714
T: Kentucky Waltz
C:Bill Monroe
B: jims roots
M:3/4
L:1/8
Q: 1/4=100
K:D
V:1 
xDF2A | "D"d4 cB | A4 DE | F6- | F4 (3DFA |d2 F2 B2 | A4 D2 |
"A7"C6- || C4 AB | c4 cB | A4 GE| C4 CB, | A,4 A,A,| A,2 C2 E2 |
A2 c2 (3BcB | "D"F6- || F4 (3ABc | d4 cB | A4 DE | F6- | F2 zA de |
f3 a fe | "D7"d2 A2 ^A2 | "G"B6- || B4 Bc | d3- dcd |
e2 d2 e"F#"=f | "D"^f4 d2 | "B7"A4^GA | "E7"B3 ^A B=c | "A7"c2 f2 e2 | "D"d6 |]
% abcbook-tune_id 6298c25dcc4e79df7dc56466


% abcbook-boost 0
% abcbook-tablature 
% abcbook-transpose 
% abcbook-lastupdated 1654178399481
% abcbook-soundfonts 
% abcbook-repeats 1
% Jim Kendrick

